src/client/icons/svg/unlocking.svg

<svg xmlns="http://www.w3.org/2000/svg" viewBox="0 0 512 512" id="svg-unlocking"><defs><linearGradient id="lorc-unlocking-gradient-1"><stop offset="0%" stopColor="#edf3ee" stopOpacity="1"></stop><stop offset="100%" stopColor="#bdd2bf" stopOpacity="1"></stop></linearGradient><linearGradient id="lorc-unlocking-gradient-3"><stop offset="0%" stopColor="#edf3ee" stopOpacity="1"></stop><stop offset="100%" stopColor="#bdd2bf" stopOpacity="1"></stop></linearGradient><linearGradient id="lorc-unlocking-gradient-4"><stop offset="0%" stopColor="#edf3ee" stopOpacity="1"></stop><stop offset="100%" stopColor="#bdd2bf" stopOpacity="1"></stop></linearGradient><linearGradient id="lorc-unlocking-gradient-5"><stop offset="0%" stopColor="#edf3ee" stopOpacity="1"></stop><stop offset="100%" stopColor="#bdd2bf" stopOpacity="1"></stop></linearGradient><linearGradient id="lorc-unlocking-gradient-6"><stop offset="0%" stopColor="#edf3ee" stopOpacity="1"></stop><stop offset="100%" stopColor="#bdd2bf" stopOpacity="1"></stop></linearGradient><linearGradient id="lorc-unlocking-gradient-7"><stop offset="0%" stopColor="#edf3ee" stopOpacity="1"></stop><stop offset="100%" stopColor="#bdd2bf" stopOpacity="1"></stop></linearGradient><linearGradient id="lorc-unlocking-gradient-8"><stop offset="0%" stopColor="#edf3ee" stopOpacity="1"></stop><stop offset="100%" stopColor="#bdd2bf" stopOpacity="1"></stop></linearGradient><linearGradient id="lorc-unlocking-gradient-9"><stop offset="0%" stopColor="#edf3ee" stopOpacity="1"></stop><stop offset="100%" stopColor="#bdd2bf" stopOpacity="1"></stop></linearGradient></defs><path d="M0 0h512v512H0z" fill="#46794d" fillOpacity="1"></path><g  transform="translate(0,0)" ><path d="M78.53 157.188c-23.843 0-43.93 21.364-50.28 50.593-4.216 5.54-6.75 12.435-6.75 19.876 0 7.506 2.56 14.467 6.844 20.03 6.475 28.963 26.485 50.064 50.187 50.064 24.293 0 44.72-22.173 50.657-52.25H234.97v65.594h19.31v-44.22h18.69v44.22h20.092V286h18.688v25.094h15.125V245.5h17.97v-33.47h-215.19c-5.248-31.382-26.14-54.843-51.124-54.843zM424.44 169.28c-31.78 0-57.813 26.036-57.813 57.814 0 17.65 7.836 33.673 20.47 44.312l-25.22 72.938-4.28 12.406h133.123l-4.314-12.406-25.187-72.938c12.63-10.64 20.467-26.662 20.467-44.312 0-31.642-25.47-57.813-57.25-57.813zm0 18.69c21.617 0 38.562 17.372 38.562 39.124 0 14.002-7.057 26.117-17.875 33l-6.22 3.97 2.408 6.967 23.156 67.033H383.81L407 271.03l2.406-6.967-6.22-3.97c-10.817-6.882-17.873-18.997-17.873-33 0-21.615 17.507-39.124 39.125-39.124zm-369.97 25.405c8.003 0 14.313 6.28 14.313 14.28 0 8.003-6.31 14.282-14.31 14.282-8.003 0-14.282-6.28-14.282-14.28 0-8.003 6.28-14.282 14.28-14.282z" fill="url(#lorc-unlocking-gradient-1)"></path></g></svg>

<svg xmlns="http://www.w3.org/2000/svg" viewBox="0 0 512 512" id='svg-unlocking'><defs><linearGradient id="lorc-unlocking-gradient-1"><stop offset="0%" stopColor="#edf3ee" stopOpacity="1"></stop><stop offset="100%" stopColor="#f8fafd" stopOpacity="1"></stop></linearGradient><linearGradient id="lorc-unlocking-gradient-2"><stop offset="0%" stopColor="#edf3ee" stopOpacity="1"></stop><stop offset="100%" stopColor="#bdd2bf" stopOpacity="1"></stop></linearGradient><linearGradient id="lorc-unlocking-gradient-3"><stop offset="0%" stopColor="#edf3ee" stopOpacity="1"></stop><stop offset="100%" stopColor="#83b6f0" stopOpacity="1"></stop></linearGradient><linearGradient x1="0" x2="1" y1="1" y2="0" id="lorc-unlocking-gradient-11"><stop offset="0%" stopColor="#edf3ee" stopOpacity="1"></stop><stop offset="100%" stopColor="#ba9f0b" stopOpacity="1"></stop></linearGradient><linearGradient x1="0" x2="0" y1="0" y2="1" id="lorc-unlocking-gradient-12"><stop offset="0%" stopColor="#edf3ee" stopOpacity="1"></stop><stop offset="100%" stopColor="#cecece" stopOpacity="1"></stop></linearGradient><linearGradient id="lorc-unlocking-gradient-13"><stop offset="0%" stopColor="#edf3ee" stopOpacity="1"></stop><stop offset="100%" stopColor="#ba9f0b" stopOpacity="1"></stop></linearGradient><linearGradient id="lorc-unlocking-gradient-14"><stop offset="0%" stopColor="#edf3ee" stopOpacity="1"></stop><stop offset="100%" stopColor="#ba9f0b" stopOpacity="1"></stop></linearGradient></defs><path d="M0 0h512v512H0z" fill="#195f9f" fillOpacity="1"></path><g transform="translate(0,0)"><g><path d="M78.53 157.188C54.687 157.188 34.6 178.552 28.25 207.781C24.034 213.321 21.5 220.216 21.5 227.657C21.5 235.163 24.06 242.124 28.344 247.687C34.819 276.65 54.829 297.751 78.531 297.751C102.824 297.751 123.251 275.578 129.188 245.501L234.97 245.501L234.97 311.095L254.28 311.095L254.28 266.875L272.97 266.875L272.97 311.095L293.062 311.095L293.062 286L311.75 286L311.75 311.094L326.875 311.094L326.875 245.5L344.845 245.5L344.845 212.03L129.655 212.03C124.407 180.648 103.515 157.187 78.531 157.187Z" fill="url(#lorc-unlocking-gradient-2)"></path><path d="M424.44 169.28C392.66 169.28 366.627 195.316 366.627 227.094C366.627 244.744 374.463 260.767 387.097 271.406L361.877 344.344L357.597 356.75L490.72 356.75L486.406 344.344L461.219 271.406C473.849 260.766 481.686 244.744 481.686 227.094C481.686 195.452 456.216 169.281 424.436 169.281Z" fill="url(#lorc-unlocking-gradient-3)"></path><path d="M424.44 187.97C446.057 187.97 463.002 205.342 463.002 227.094C463.002 241.096 455.945 253.211 445.127 260.094L438.907 264.064L441.315 271.031L464.471 338.064L383.81 338.064L407 271.03L409.406 264.063L403.186 260.093C392.369 253.211 385.313 241.096 385.313 227.093C385.313 205.478 402.82 187.969 424.438 187.969Z" fill="#303030" fillOpacity="1"></path><path d="M54.47 213.375C62.473 213.375 68.783 219.655 68.783 227.655C68.783 235.658 62.473 241.937 54.473 241.937C46.47 241.937 40.191 235.657 40.191 227.657C40.191 219.654 46.471 213.375 54.471 213.375Z" className="selected" fill="#4a4a4a" fillOpacity="1"></path></g></g></svg>
